resources/svg/sharp-trash.svg

<svg xmlns="http://www.w3.org/2000/svg" fill="none" viewBox="0 0 24 24"><path fill="currentColor" fill-rule="evenodd" d="M9.17071 5C9.58254 3.83481 10.6938 3 12 3C13.3062 3 14.4175 3.83481 14.8293 5H9.17071ZM7.10002 5C7.56329 2.71776 9.58104 1 12 1C14.419 1 16.4367 2.71776 16.9 5H23V7H21V23H3V7H1V5H7.10002ZM7.5 18.5V10.5H9.5V18.5H7.5ZM14.5 10.5V18.5H16.5V10.5H14.5Z" clip-rule="evenodd"></path></svg>

<svg xmlns="http://www.w3.org/2000/svg" fill="none" viewBox="0 0 24 24"><path fill="currentColor" fill-rule="evenodd" d="M9.17 5a3.001 3.001 0 0 1 5.66 0H9.17ZM7.1 5a5.002 5.002 0 0 1 9.8 0H23v2h-2v16H3V7H1V5h6.1Zm.4 13.5v-8h2v8h-2Zm7-8v8h2v-8h-2Z" clip-rule="evenodd"/></svg>
